!!!OTL: Die Rabenmutter Es wollt' ein Halter frueh austreiben,
!!!ARE: Europa, Osteuropa, Ungarn
!!!YOR: 5, S. 271
!!    1940 gedruckt in Budapest
!!!SCT: Q0114Z
!!!YEM: Copyright 1995, estate of Helmut Schaffrath.
**kern
*ICvox
*Ivox
*M3/2
*k[f#]
*G:
{4d
4d
4f#
=1
2.g
4d
4B
4d
=2
2e
4d}
{4g
4b
4b
=3
2.a
4g
4f#
4e
=4
2e
4d}
{4d
4d
4g
=5
2.b
8a
8b
4cc
8b
8dd
=6
2.a}
{4g
4f#
8e
8e
=7
2.d
4d
4e
4f#
=8
2.g}
==
!!!AGN: Ballade, Kinds - Mord, Strafe
!!!ONB: ESAC (Essen Associative Code) Database: BALLADE
!!!AMT: simple triple
!!!AIN: vox
!!!EED: Helmut Schaffrath
!!!EEV: 1.0
*-
